X:365
T:Trip to Durrow
Z: id:dc-reel-140
M:C
L:1/8
K:D Major
FE|D2FA D2FA|d2fd gdfd|edBd AFF2|BAGB ABde|faeg fdd:|!
e|f2df e2de|fedB AFF2|BAGB ADFA|BAGF EFGe|!
f2df e2de|fedB AFF2|BAGB ABde|faeg fdd:|!